!!!OTL: 9c. Die verwandelte Blume.
!!!ODT: 1885
!!!ARE: Europa, Mitteleuropa, Deutschland, Ober - Hessen
!!!SCT: E0009C
!!!TXL: @@DE
!!!YEM: Copyright 1995, estate of Helmut Schaffrath.
**kern	**text
*ICvox	*
*M6/8	*
*k[f#]	*
*G:	*
!LO:TX:a:t=Mäßig bewegt.	!
!LO:TX:a:t=Aus Oberheſſen. 1885.	!
{8d	Da
=1	=1
8.g	un-
16a	-ten
8b	im
8.g	Gar-
16a	-ten
8b	da
=2	=2
4.a	iſt
4r}	.
{8b	ein
=3	=3
4cc	ſo
8ee	ſchön
4ee	Pa-
16dd	-ra-
16cc	.
=4	=4
4.b	-dies.
4r}	.
{8g	Es
=5	=5
4g	iſt
8ee	ſo
4ee	ſchön
8dd	ʒu
=6	=6
4.cc	ſehn,
4r}	.
{8a	daß
=7	=7
4a	man
8dd	hinein
4dd	.
8b	möcht
=8	=8
4.b	gehn,
4r}	.
{8d	daß
=9	=9
4e	man
8f#	hin-
4g	-ein
8ee	möcht
=10	=10
4ee	gehn,
8dd	hin-
4cc	-ein
8dd	möcht
=11	=11
4.b	gehn.
4r}	.
==	==
!!!AGN: Sage, Maerchen -, Zauber - Lied, Ballade ?
!!!ONB: ESAC (Essen Associative Code) Database: ERK1
!!!AMT: compound duple
!!!AIN: vox
!!!EED: Helmut Schaffrath
!!!EEV: 1.0
!!!GTL: Nachtklaenge der Goettersage (Zaubermaeren)
!!!URL-scan: https://rosdok.uni-rostock.de/mcrviewer/recordIdentifier/rosdok_ppn745146120/iview2/phys_0093.iview2?x=-4.404412318552431&y=63.55421871918952&scale=0.645690413860662&rotation=0&layout=singlePageLayout&logicalDiv=log_0009
!!!ENC: Anna Maria Matuszewska
!!!EEV: 2024/22/11
*-	*-
